X:1
T:Title
%%score { ( 1 4 ) | ( 2 3 ) }
L:1/8
M:6/8
K:Bb
V:1 treble nm="Grand Piano"
V:4 treble 
V:2 bass 
V:3 bass 
V:1
 z3 z2[Q:1/4=100] [DF] | [DF]2 [DF] [DF]>[B,D][DF] | [EG]2 [DF] [DF]2 [FB] | c2 c cBc | %4
[M:5/8] [Fd]-[Fd]- [Fd]3 |[M:1/8] [^Fc] |[M:3/4] [GB]2 Bc BG | [EG]2 [DF] [B,D]2 [DF] | %8
 [FB]2 [FB][Ec] [Fd][Ec] |[M:5/8] [DB]- [DB]3 z |[M:1/8] [DB] | %11
[M:3/4] [Ec]>[Ec] [DB][Fd]- [Fd]/[Ec]/[DB] | [EG]3 [DF]2 [DB] | d>c B[=Ec]- [Ec]/[EB]/[EG] | %14
[M:5/8] [EA]-[EA]- [EA]3 |[M:1/8] [EF] |[M:3/4] [DB]>[DB] [DB][Fd]- [Fd]/[Fd]/[_Ad] | %17
[M:7/8] [Ge]3 [EG]3 [Gc] |[M:13/16] BFBAd3/2c |[M:5/8] B2- [EB-] [DB]2 |] %20
V:2
 z3 z2 [B,,B,] | [B,,B,]2 [B,,B,] [B,,B,]>[B,,F,][B,,B,] | [E,B,]2 [B,,B,] [B,,B,]2 [D,B,] | %3
 [F,A,F]2 [F,A,F] [F,F]-[F,G,F][F,A,F] |[M:5/8] [B,,B,]-[B,,B,]- [B,,B,]3 |[M:1/8] [D,A,] | %6
[M:3/4] [E,G,]2 [E,G,E] [E,G,E]2 [E,B,E] | [B,,B,]2 [B,,B,] [B,,F,]2 [B,,B,] | %8
 [D,B,]2 [D,B,] [F,A,]2 [F,A,] |[M:5/8] [B,,B,]- [B,,B,]3 z |[M:1/8] [B,,F,] | %11
[M:3/4] [B,,B,]>[B,,B,] [B,,B,][B,,B,]- [B,,B,]/[B,,B,]/[B,,B,] | [E,B,]3 [B,,B,]2 [B,,F,] | %13
 [G,B,D]>[G,B,D] [G,D][C,G,]- [C,G,]/[C,G,]/[C,C] |[M:5/8] [F,C]-[F,C]- [F,C]3 |[M:1/8] [F,A,] | %16
[M:3/4] [B,,B,]>[B,,B,] [B,,B,][B,,B,]- [B,,B,]/[B,,B,]/[B,,B,] |[M:7/8] [E,B,]3 [E,B,]3 [E,E] | %18
[M:13/16] [F,DF][F,D][F,DF][F,CF][F,A,F]3/2[F,A,E] |[M:5/8] z2 G, F,2 |] %20
V:3
 x6 | x6 | x6 | z3 .A,3 |[M:5/8] x5 |[M:1/8] x |[M:3/4] x6 | x6 | x6 |[M:5/8] x5 |[M:1/8] x | %11
[M:3/4] x6 | x6 | x6 |[M:5/8] x5 |[M:1/8] x |[M:3/4] x6 |[M:7/8] x7 |[M:13/16] x13/2 | %19
[M:5/8] B,,-B,,- B,,3 |] %20
V:4
 x6 | x6 | x6 | x6 |[M:5/8] x5 |[M:1/8] x |[M:3/4] x6 | x6 | x6 |[M:5/8] x5 |[M:1/8] x | %11
[M:3/4] x6 | x6 | x6 |[M:5/8] x5 |[M:1/8] x |[M:3/4] x6 |[M:7/8] x7 |[M:13/16] x13/2 | %19
[M:5/8] [B,D]2 z z2 |] %20

